Adwaita++-Light/panel/16/si-syncthing-8.svg

<svg height="16" width="16" xmlns="http://www.w3.org/2000/svg">
  <path d="m4.5 14.062178a7 7 0 0 0 9.562178-2.562178 7 7 0 0 0 -2.562178-9.5621777 7 7 0 0 0 -9.5621777 2.5621777 7 7 0 0 0 2.5621777 9.562178zm1.0000001-1.732051a5 5 0 0 1 -2.2223083-5.9672549 1.5 1.5 0 0 1 -.2238435-1.7958844 1.5 1.5 0 0 1 1.9794258-.5847175 5 5 0 0 1 3.5290737-.9484718 1.5 1.5 0 0 1 2.0046402-.47995 1.5 1.5 0 0 1 .70311 1.6688947 5 5 0 0 1 1.060029 6.2772569 5 5 0 0 1 -.0447.07343 1.5 1.5 0 0 1 .160685 1.725589 1.5 1.5 0 0 1 -2.049038.549039 1.5 1.5 0 0 1 -.357975-.290127 5 5 0 0 1 -4.5390969-.2278zm.4999998-.866025a4 4 0 0 0 3.6498057.174447 1.5 1.5 0 0 1 .1982708-.839511 1.5 1.5 0 0 1 .03365-.05048l-1.5829095-2.0122174a1.5 1.5 0 0 1 -1.2318294-.1203151 1.5 1.5 0 0 1 -.7229226-1.5720801l-1.0182567-.5878908a1.5 1.5 0 0 1 -1.1375005.3491165 4 4 0 0 0 1.8116922 4.6589309zm4.6669771-1.33344a1.5 1.5 0 0 1 .74882-.05481 4 4 0 0 0 .048305-.075852 4 4 0 0 0 -.757826-4.9413138 1.5 1.5 0 0 1 -1.1623304.2671218l-.5878907 1.0182569a1.5 1.5 0 0 1 .1599707 1.7229225 1.5 1.5 0 0 1 -.03366.050481zm-3.8229119-3.9527418a1.5 1.5 0 0 1 1.2459643-.3338551l.5878907-1.0182572a1.5 1.5 0 0 1 -.3479203-.8075395 4 4 0 0 0 -2.6039857.6977355 1.5 1.5 0 0 1 .09979.8740254l1.0182609.5878909z" fill="#444"/>
</svg>

<svg xmlns="http://www.w3.org/2000/svg" width="16" height="16" version="1.1">
 <defs>
  <style id="current-color-scheme" type="text/css">
   .ColorScheme-Text { color:#444444; } .ColorScheme-Highlight { color:#4285f4; }
  </style>
 </defs>
 <path style="fill:currentColor" class="ColorScheme-Text" d="M 4.5,14.062178 A 7,7 0 0 0 14.062178,11.5 7,7 0 0 0 11.5,1.9378223 7,7 0 0 0 1.9378223,4.5 7,7 0 0 0 4.5,14.062178 Z M 5.5000001,12.330127 A 5,5 0 0 1 3.2776918,6.3628721 1.5,1.5 0 0 1 3.0538483,4.5669877 1.5,1.5 0 0 1 5.0332741,3.9822702 5,5 0 0 1 8.5623478,3.0337984 1.5,1.5 0 0 1 10.566988,2.5538484 1.5,1.5 0 0 1 11.270098,4.2227431 5,5 0 0 1 12.330127,10.5 a 5,5 0 0 1 -0.0447,0.07343 1.5,1.5 0 0 1 0.160685,1.725589 1.5,1.5 0 0 1 -2.049038,0.549039 1.5,1.5 0 0 1 -0.357975,-0.290127 5,5 0 0 1 -4.5390969,-0.2278 z m 0.4999998,-0.866025 a 4,4 0 0 0 3.6498057,0.174447 1.5,1.5 0 0 1 0.1982708,-0.839511 1.5,1.5 0 0 1 0.03365,-0.05048 L 8.2988169,8.7363406 A 1.5,1.5 0 0 1 7.0669875,8.6160255 1.5,1.5 0 0 1 6.3440649,7.0439454 L 5.3258082,6.4560546 A 1.5,1.5 0 0 1 4.1883077,6.8051711 4,4 0 0 0 5.9999999,11.464102 Z m 4.6669771,-1.33344 a 1.5,1.5 0 0 1 0.74882,-0.05481 A 4,4 0 0 0 11.464102,10 4,4 0 0 0 10.706276,5.0586862 1.5,1.5 0 0 1 9.5439456,5.325808 L 8.9560549,6.3440649 a 1.5,1.5 0 0 1 0.1599707,1.7229225 1.5,1.5 0 0 1 -0.03366,0.050481 L 10.666977,10.130662 Z M 6.8440651,6.1779202 A 1.5,1.5 0 0 1 8.0900294,5.8440651 L 8.6779201,4.8258079 A 1.5,1.5 0 0 1 8.3299998,4.0182684 4,4 0 0 0 5.7260141,4.7160039 a 1.5,1.5 0 0 1 0.09979,0.8740254 l 1.0182609,0.5878909 z"/>
</svg>
